X:1
T:Bride will be no more wi' her Mother, The
M:2/4
L:1/8
R:Hornpipe
B:William Gunn - The Caledonian Repository of Music
B:Adapted for the Bagpipes (Glasgow, 1848, p.109)
Z:AK/Fiddler’s Companion
K:G
e|GA/B/ ga/g/|fd/B/ d>B|GA/B/ gf/g/|aA/A/ AA/B/|
GA/B/ ga/g/|fe/d/ ef/g/|fe/d/ ed/B/|gd/B/ A>B:|
|:GA/B/ gd/B/|gd/B/ gd/B/|GA/B/ gd/B/|aA/A/ A/A/B|
GA/B/ ga/g/|fe/d/ ef/g/|fe/d/ ed/B/|gd/B/ A>B:|]

